X:1
T:Scarborough Fair
C:Traditional
O:England
M:3/4
L:1/4
K:Ddor
"Dm"D2 D | "Dm"A G A | "C"E>F E | "Dm"D3 | "F"z A c |
"Dm"d2 c | "G"A B G | "Dm"A2 A | "Bb"d2 D | "F"F2 G |
"F"A G F | "C"(E C) D | "Dm"D2 A | "C"G2 F | "C"E D C | "Dm"D3 |
